frontend/public/svg/gender symbols/bisexual.svg

<svg width="188" height="175" viewBox="0 0 188 175" fill="none" xmlns="http://www.w3.org/2000/svg">
<g clip-path="url(#clip0)">
<path d="M109.492 35.167L117.722 52.6038C127.764 51.5058 137.914 52.7384 146.742 58.2228L169.679 36.0252C168.579 35.8768 167.776 35.6973 166.964 35.6717C164.045 35.5766 161.123 35.6139 158.206 35.4413C155.932 35.31 154.621 33.9611 154.698 32.1686C154.771 30.4897 156.016 29.3687 158.149 29.1593C159.04 29.0713 159.945 29.1331 160.843 29.1147C167.013 28.9835 173.19 28.8799 179.362 28.7138C182.522 28.6292 184.194 29.6004 184.717 32.5768C185.669 37.9873 186.471 43.4232 187.122 48.8843C187.208 49.4739 187.174 50.0746 187.023 50.6508C186.872 51.2271 186.607 51.767 186.243 52.2385C185.879 52.71 185.424 53.1037 184.905 53.3958C184.385 53.6877 183.812 53.8719 183.22 53.938C180.942 54.1079 179.033 52.1784 178.791 49.3692C178.725 48.5961 178.938 47.8028 178.913 47.0224C178.826 44.3577 178.689 41.6953 178.532 38.1583C169.059 46.7163 160.877 55.4202 152.453 63.6519C154.397 67.3929 156.567 70.8243 158.035 74.5319C163.075 87.259 162.179 99.8292 156.047 111.96C152.98 118.071 147.643 122.739 141.179 124.968C131.434 128.642 120.808 129.287 110.69 126.819C98.4005 123.808 90.7561 115.716 86.9107 103.837C86.4696 102.473 86.0856 101.091 85.6498 99.6323L76.8693 100.035C69.0169 120.305 66.6213 122.366 44.7744 127.541C44.9942 133.015 45.2161 138.56 45.4576 144.582C48.2799 144.328 50.8007 144.079 53.3237 143.883C54.8743 143.69 56.4381 143.624 57.9995 143.686C58.859 143.704 59.6806 144.045 60.3002 144.641C60.9198 145.237 61.2922 146.044 61.343 146.902C61.4795 147.751 61.3037 148.62 60.8485 149.349C60.3934 150.078 59.6896 150.617 58.8673 150.867C57.4837 151.302 56.0416 151.524 54.5912 151.524C51.8064 151.621 49.0162 151.552 45.9931 151.552C46.2025 155.803 46.4086 159.697 46.5793 163.592C46.6528 165.274 46.725 166.962 46.6594 168.642C46.6214 169.647 46.4314 170.64 46.0956 171.588C45.5253 173.168 44.4396 174.293 42.6275 174.309C41.8294 174.333 41.0469 174.086 40.4062 173.609C39.7656 173.134 39.3044 172.455 39.0971 171.684C38.6832 170.527 38.4284 169.318 38.3401 168.092C38.0697 163.722 37.9124 159.346 37.7036 154.973C37.657 153.988 37.5725 153.004 37.4806 151.601C34.7798 151.601 32.2297 151.652 29.6817 151.581C28.222 151.577 26.7668 151.421 25.339 151.117C24.5512 150.978 23.8465 150.542 23.3694 149.9C22.8921 149.257 22.6784 148.457 22.772 147.662C22.9262 146.028 23.971 145.103 26.0719 145.044C29.2151 144.954 32.3622 145.013 35.5074 144.983C36.2048 144.925 36.8986 144.832 37.586 144.702V127.676C35.279 127.413 32.5981 127.286 29.9866 126.792C14.6939 123.9 5.12291 113.807 1.95214 97.8792C0.827924 92.6534 0.751142 87.2564 1.72621 82.0011C2.70127 76.7451 4.709 71.7353 7.63293 67.2604C9.25868 64.8389 11.2699 62.6998 13.5871 60.9282C19.5433 56.0894 26.7524 53.0434 34.3739 52.1462C37.0386 51.8325 39.7035 51.5207 42.4207 51.2024C43.9651 47.968 45.4443 44.5964 47.1731 41.3573C48.1147 39.4517 49.3448 37.7028 50.8198 36.1723C56.6452 30.5352 63.9513 26.6682 71.8884 25.0206C79.2683 23.4379 86.9277 23.7351 94.1625 25.885C97.6602 26.8695 100.954 28.5761 104.606 30.0653C104.765 29.915 105.269 29.4743 105.735 28.9971C112.552 22.0183 119.365 15.0343 126.665 7.55206C125.009 7.4628 123.777 7.37026 122.538 7.33481C120.068 7.26327 117.591 7.30193 115.127 7.14572C112.829 7.00002 111.504 5.71101 111.542 3.92971C111.58 2.1727 112.955 0.902065 115.271 0.851527C119.65 0.756358 124.034 0.862649 128.414 0.798328C130.994 0.76026 133.57 0.555598 136.148 0.42433C139.448 0.256964 141.048 1.29536 141.62 4.53702C142.539 9.72211 143.28 14.9476 143.952 20.1747C144.322 23.058 142.556 25.3934 140.14 25.6225C137.646 25.8588 135.646 23.6002 135.619 20.459C135.667 17.1576 135.528 13.8563 135.203 10.5706C125.945 18.3745 117.773 27.0796 109.492 35.167ZM92.735 98.4377C93.3303 103.526 95.4424 108.318 98.7963 112.19C102.151 116.062 106.592 118.837 111.543 120.153C119.933 122.359 128.239 121.641 136.435 119.143C142.853 117.186 147.225 112.949 149.787 106.78C151.514 102.629 152.481 98.2001 152.641 93.7062C152.982 84.419 150.666 75.9378 144.502 68.7483C142.198 66.0573 139.489 63.8126 136.03 62.9207C131.818 61.8344 127.529 61.0141 123.242 60.2607C121.647 59.9804 119.961 60.2155 118.248 60.2155C117.583 78.5041 112.393 93.2697 92.735 98.4344V98.4377ZM68.2142 99.1098C67.9143 98.9063 67.6032 98.72 67.2829 98.5519C66.8674 98.3846 66.4447 98.2284 66.0146 98.1017C56.8883 95.4146 50.1313 89.8089 46.1428 81.2154C44.5282 77.5288 43.2903 73.6885 42.4476 69.7525C41.687 66.5272 41.5759 63.1499 41.1834 59.8899C34.1258 58.6671 28.66 59.7435 21.7067 63.4853C16.8922 65.9864 13.0415 70.0117 10.7563 74.9323C5.98997 85.0301 7.05591 95.0307 11.1921 104.91C14.7606 113.432 21.3825 118.356 30.417 120.062C37.8572 121.395 45.5114 120.865 52.6969 118.519C62.177 115.586 66.4598 108.418 68.2142 99.1065V99.1098ZM49.4876 52.4055C51.1724 52.8071 52.6898 53.1473 54.1954 53.5319C58.1735 54.548 61.8983 56.2183 64.7625 59.1515C72.8421 67.4212 77.397 77.2787 77.5283 88.9865C77.5434 90.286 77.5283 91.5869 77.5283 93.2638L84.4855 92.6843C84.477 74.7662 91.6297 61.8285 108.663 54.6895C106.065 46.2346 102.39 38.5804 93.646 34.8583C86.7886 31.8971 79.2263 30.9663 71.8556 32.1766C64.9589 33.3344 58.6631 36.6554 54.1679 42.38C51.821 45.2935 50.2151 48.7325 49.4876 52.4023V52.4055ZM48.3547 61.135C48.1814 77.9272 57.6176 90.1574 68.7852 91.6085C70.0907 80.5322 62.4988 62.9951 48.3547 61.1324V61.135ZM109.273 62.3617C97.1554 67.2748 89.2393 80.2585 91.5871 91.0132C103.952 89.415 110.161 75.3563 109.273 62.3588V62.3617Z" fill="black"/>
</g>
<defs>
<clipPath id="clip0">
<rect width="187.056" height="174.586" fill="white" transform="translate(0.731934 0.344727)"/>
</clipPath>
</defs>
</svg>

<svg xmlns="http://www.w3.org/2000/svg" width="188" height="175" fill="none" viewBox="0 0 188 175"><g clip-path="url(#a)"><path fill="#000" d="m109.492 35.167 8.23 17.437c10.042-1.098 20.192.134 29.02 5.619l22.937-22.198c-1.1-.148-1.903-.328-2.715-.353-2.919-.095-5.841-.058-8.758-.23-2.274-.132-3.585-1.48-3.508-3.273.073-1.68 1.318-2.8 3.451-3.01.891-.088 1.796-.026 2.694-.044 6.17-.131 12.347-.235 18.519-.401 3.16-.085 4.832.886 5.355 3.863a297 297 0 0 1 2.405 16.307 4.44 4.44 0 0 1-3.902 5.054c-2.278.17-4.187-1.76-4.429-4.569-.066-.773.147-1.566.122-2.347-.087-2.664-.224-5.327-.381-8.864-9.473 8.558-17.655 17.262-26.079 25.494 1.944 3.74 4.114 7.172 5.582 10.88 5.04 12.727 4.144 25.297-1.988 37.428a26.2 26.2 0 0 1-14.868 13.008 51.7 51.7 0 0 1-30.489 1.851c-12.29-3.011-19.934-11.103-23.78-22.982-.44-1.364-.824-2.746-1.26-4.205l-8.78.403c-7.853 20.27-10.249 22.331-32.096 27.506l.684 17.041c2.822-.254 5.343-.503 7.866-.699a29 29 0 0 1 4.676-.197 3.423 3.423 0 0 1 3.343 3.216 3.554 3.554 0 0 1-2.476 3.965 14.3 14.3 0 0 1-4.276.657c-2.785.097-5.575.028-8.598.028.21 4.251.416 8.145.586 12.04.074 1.682.146 3.37.08 5.05a10 10 0 0 1-.563 2.946c-.57 1.58-1.656 2.705-3.468 2.721a3.54 3.54 0 0 1-2.222-.7 3.54 3.54 0 0 1-1.309-1.925 13.6 13.6 0 0 1-.757-3.592c-.27-4.37-.428-8.746-.636-13.119-.047-.985-.132-1.969-.223-3.372-2.701 0-5.251.051-7.8-.02a21 21 0 0 1-4.342-.464 3.133 3.133 0 0 1-2.567-3.455c.154-1.634 1.199-2.559 3.3-2.618 3.143-.09 6.29-.031 9.435-.061a20 20 0 0 0 2.079-.281v-17.026c-2.307-.263-4.988-.39-7.6-.884C14.695 123.9 5.124 113.807 1.953 97.879a40.43 40.43 0 0 1 5.68-30.619 26.7 26.7 0 0 1 5.955-6.332 40.47 40.47 0 0 1 20.787-8.782l8.047-.944c1.544-3.234 3.023-6.606 4.752-9.845a20.7 20.7 0 0 1 3.647-5.185 42.8 42.8 0 0 1 21.068-11.151 45.04 45.04 0 0 1 22.274.864c3.498.984 6.792 2.691 10.444 4.18.159-.15.663-.59 1.129-1.068 6.817-6.979 13.63-13.963 20.93-21.445-1.656-.09-2.888-.182-4.127-.217-2.47-.072-4.947-.033-7.411-.19-2.298-.145-3.623-1.434-3.585-3.215.038-1.757 1.413-3.028 3.729-3.078 4.379-.096 8.763.01 13.143-.054 2.58-.038 5.156-.242 7.734-.374 3.3-.167 4.9.871 5.472 4.113.919 5.185 1.66 10.41 2.332 15.638.37 2.883-1.396 5.218-3.812 5.447-2.494.237-4.494-2.022-4.521-5.163a88 88 0 0 0-.416-9.888c-9.258 7.804-17.43 16.509-25.711 24.596m-16.757 63.27a25.54 25.54 0 0 0 18.808 21.716c8.39 2.206 16.696 1.488 24.892-1.01 6.418-1.957 10.79-6.194 13.352-12.363a37.5 37.5 0 0 0 2.854-13.074c.341-9.287-1.975-17.768-8.139-24.958-2.304-2.69-5.013-4.935-8.472-5.827-4.212-1.087-8.501-1.907-12.788-2.66-1.595-.28-3.281-.046-4.994-.046-.665 18.29-5.855 33.055-25.513 38.22zm-24.52.673q-.451-.306-.932-.558a14 14 0 0 0-1.268-.45c-9.127-2.687-15.884-8.293-19.872-16.887a59.8 59.8 0 0 1-3.695-11.463c-.761-3.225-.872-6.602-1.265-9.862-7.057-1.223-12.523-.147-19.476 3.595a24.56 24.56 0 0 0-10.95 11.447c-4.767 10.098-3.701 20.099.435 29.978 3.569 8.522 10.19 13.446 19.225 15.152a45.8 45.8 0 0 0 22.28-1.543c9.48-2.933 13.763-10.101 15.517-19.413zM49.487 52.406c1.684.401 3.202.741 4.707 1.126 3.978 1.016 7.703 2.686 10.568 5.62 8.08 8.27 12.634 18.127 12.765 29.835.015 1.299 0 2.6 0 4.277l6.957-.58c-.008-17.918 7.145-30.855 24.178-37.994-2.598-8.455-6.273-16.11-15.017-19.832a39 39 0 0 0-21.79-2.681c-6.897 1.157-13.193 4.478-17.688 10.203a23.15 23.15 0 0 0-4.68 10.022zm-1.133 8.729c-.174 16.792 9.263 29.022 20.43 30.474 1.306-11.077-6.286-28.614-20.43-30.477zm60.918 1.227c-12.118 4.913-20.034 17.896-17.686 28.651 12.365-1.598 18.574-15.657 17.686-28.654z"/></g><defs><clipPath id="a"><path fill="#fff" d="M.732.345h187.056V174.93H.732z"/></clipPath></defs></svg>
